X: 61
T: The Rakes of Westmeath
%R: slip-jig
B: "The Hibernian Muse" p.38 #1
F: http://imslp.org/wiki/The_Hibernian_Muse_%28Various%29
Z: 2015 John Chambers <jc:trillian.mit.edu>
P: No. LXI.
M: 9/8
L: 1/8
K: D
% - - - - - - - - - - - - - - - - - - - - - - - - - - - - -
V: 1
|:\
ABc dAG FED | ABc dAF G2E |\
ABc dAG FGA | =cBc cEF G2E :|
|:\
DFA dAF (E/F/G)E | DFA dAF BGE |\
DFA dAF (E/F/G)E | (A/B/=c)A GEF G2E :|
% - - - - - - - - - - - - - - - - - - - - - - - - - - - - -
V: 2 clef=bass middle=d
|: d3 d3 d3 | d3 d3 A3 | d3 d3 d3 | a3 a3 a3 :|
|: d3 d3 a3 | d3 d3 g3 | d3 d3 A3 | a3 a3 a3 :|

%%sep 2 1 500
%%sep 1 1 500

